static/img/devops.svg

<svg fill="none" height="102" viewBox="0 0 71 102" width="71" xmlns="http://www.w3.org/2000/svg"><path d="m49.6593 60.6309c1.9021 2.7195 3.0187 6.0343 3.0187 9.6159 0 9.2302-7.4333 16.7124-16.6079 16.7124-9.1745 0-16.6031-7.4822-16.6031-16.7124 0-21.9609 33.211-16.1028 33.211-38.7305 0-9.2301-7.4333-16.7124-16.6031-16.7124-9.1699 0-16.6079 7.4823-16.6079 16.7124 0 3.5768 1.1166 6.8965 3.0187 9.616" stroke="#abb8ff" stroke-linecap="round" stroke-miterlimit="10"/><path d="m14.322 38.4451 8.5252 2.6642 2.6642-8.5253" stroke="#abb8ff" stroke-linecap="round"/><circle cx="36.3091" cy="50.4737" fill="#020013" r="11.0789"/><circle cx="36.3091" cy="50.4737" fill="#abb8ff" fill-opacity=".3" r="11.0789"/><g stroke="#abb8ff"><circle cx="36.3091" cy="50.4737" r="11.0789"/><rect height="4.21053" rx="2.10526" transform="matrix(0 1 -1 0 143.6247 49.9539)" width="4.21053" x="46.8354" y="96.7893"/><rect fill="#020013" height="4.21053" rx="2.10526" transform="matrix(0 -1 1 0 -55.2169 123.6245)" width="4.21053" x="34.2038" y="89.4207"/><path d="m36.3091 89.4207v5.4736c0 1.8857 0 2.8285.5857 3.4143.5858.5857 1.5286.5857 3.4143.5857h2.3157"/></g><path d="m37.4713 45.7737-.4975.0498zm1.3394.5548-.3166-.387zm1.1025.055.3535-.3536zm.4861.4861-.3536.3535zm.055 1.1025.3869.3167zm.5548 1.3394-.0498.4976zm-.5547 3.6635.387-.3166zm-.055 1.1023-.3535-.3535zm-1.5887.5412-.3166.387zm-1.3394.5549.4976.0498zm-2.3244.0002-.4975.0498zm-1.3393-.5547.3166.3869zm-1.1026-.055-.3535.3535zm-.4861-.4861.3536-.3536zm-.055-1.1025.387.3166zm-.5548-1.3393-.0497.4975zm.0002-2.3245-.0498-.4975zm.5548-1.3396.387-.3166zm.055-1.1027.3535.3535zm1.5885-.541.3166-.387zm1.3393-.5546-.4975-.0498zm2.8219-.0496c-.0676-.6761-.6365-1.191-1.316-1.191v1c.1657 0 .3045.1255.321.2905zm.5253.2175c-.1992.163-.4996.0386-.5253-.2175l-.995.0995c.105 1.0499 1.3368 1.5602 2.1535.892zm1.7726.0884c-.4804-.4804-1.2468-.5186-1.7726-.0884l.6332.774c.1283-.1049.3152-.0956.4323.0216zm.4861.4861-.4861-.4861-.7071.7072.4861.486zm.0884 1.7728c.4303-.5259.3921-1.2923-.0884-1.7728l-.7071.7071c.1172.1172.1265.3042.0216.4324zm.2176.5252c-.2561-.0256-.3805-.326-.2176-.5252l-.7739-.6333c-.6682.8167-.158 2.0486.892 2.1536zm1.191 1.316c0-.6794-.5149-1.2484-1.191-1.316l-.0995.9951c.1649.0165.2905.1552.2905.3209zm0 .6876v-.6876h-1v.6876zm-1.1909 1.3159c.676-.0676 1.1909-.6365 1.1909-1.3159h-1c0 .1656-.1255.3043-.2904.3208zm-.2175.5249c-.1628-.199-.0385-.4993.2175-.5249l-.0995-.9951c-1.0497.105-1.5601 1.3367-.892 2.1533zm-.0884 1.7725c.4804-.4804.5186-1.2467.0884-1.7725l-.774.6333c.1049.1281.0956.315-.0215.4321zm-.4862.4862.4862-.4862-.7071-.7071-.4862.4862zm-1.7727.0884c.5259.4303 1.2922.392 1.7727-.0884l-.7071-.7071c-.1172.1172-.3041.1265-.4324.0216zm-.5252.2177c.0256-.2562.3261-.3806.5252-.2177l.6332-.7739c-.8167-.6683-2.0485-.1577-2.1535.8921zm-1.3162 1.1911c.6796 0 1.2485-.515 1.3162-1.1911l-.9951-.0995c-.0165.165-.1553.2906-.3211.2906zm-.6873 0h.6873v-1h-.6873zm-1.316-1.1909c.0676.676.6365 1.1909 1.316 1.1909v-1c-.1657 0-.3045-.1256-.321-.2904zm-.5252-.2176c.1992-.1629.4996-.0385.5252.2176l.995-.0995c-.105-1.05-1.3368-1.5602-2.1535-.892zm-1.7727-.0884c.4804.4805 1.2468.5187 1.7727.0884l-.6333-.7739c-.1282.1049-.3152.0956-.4323-.0216zm-.4861-.4861.4861.4861.7071-.7071-.4861-.4861zm-.0885-1.7726c-.4302.5258-.392 1.2922.0885 1.7726l.7071-.7071c-.1172-.1172-.1265-.3041-.0216-.4323zm-.2175-.5252c.2561.0256.3805.326.2175.5252l.774.6332c.6682-.8166.1579-2.0485-.892-2.1535zm-1.191-1.316c0 .6795.5149 1.2484 1.191 1.316l.0995-.9951c-.1649-.0164-.2905-.1552-.2905-.3209zm0-.6874v.6874h1v-.6874zm1.1911-1.3161c-.6761.0676-1.1911.6366-1.1911 1.3161h1c0-.1657.1257-.3045.2906-.321zm.2176-.5254c.1631.1993.0385.4998-.2176.5254l.0995.9951c1.0501-.1051 1.5602-1.3371.8921-2.1538zm.0884-1.773c-.4805.4805-.5187 1.247-.0884 1.773l.774-.6333c-.1051-.1283-.0957-.3154.0215-.4326zm.486-.486-.486.486.7071.7071.486-.486zm1.7727-.0884c-.5258-.4302-1.2922-.3921-1.7727.0884l.7071.7071c.1171-.1171.3041-.1265.4324-.0215zm.5252-.2174c-.0256.2559-.3259.3804-.5252.2174l-.6332.774c.8165.668 2.0484.1581 2.1534-.8919zm1.3159-1.1908c-.6794 0-1.2483.5148-1.3159 1.1908l.995.0995c.0165-.1648.1552-.2903.3209-.2903zm.6875 0h-.6875v1h.6875zm1.3326 5.9408c0 .9258-.7505 1.6763-1.6763 1.6763v1c1.4781 0 2.6763-1.1982 2.6763-2.6763zm-1.6763-1.6763c.9258 0 1.6763.7505 1.6763 1.6763h1c0-1.4781-1.1982-2.6763-2.6763-2.6763zm-1.6763 1.6763c0-.9258.7505-1.6763 1.6763-1.6763v-1c-1.4781 0-2.6763 1.1982-2.6763 2.6763zm1.6763 1.6763c-.9258 0-1.6763-.7505-1.6763-1.6763h-1c0 1.4781 1.1982 2.6763 2.6763 2.6763z" fill="#ea4040"/><rect height="4.21053" rx="2.10526" stroke="#abb8ff" transform="matrix(0 -1 1 0 20.57211 30.99349)" width="4.21053" x="25.7828" y="5.21069"/><rect fill="#020013" height="4.21053" rx="2.10526" stroke="#abb8ff" transform="matrix(0 1 -1 0 50.9932 -25.8354)" width="4.21053" x="38.4143" y="12.5789"/><path d="m36.3091 12.5791v-5.47368c0-1.88562 0-2.82843-.5858-3.41422-.5858-.58578-1.5286-.58578-3.4142-.58578h-2.3158" stroke="#abb8ff"/><path d="m47.5 49c12.8561 1.7833 22 6.1494 22 11.4999 0 6.9036-15.2223 12.5-34 12.5s-34-5.5964-34-12.5c0-5.6241 10.1027-10.3806 24-11.9506" stroke="#abb8ff" stroke-dasharray="2 2"/></svg>

<svg width="71" height="102" viewBox="0 0 71 102" fill="none" xmlns="http://www.w3.org/2000/svg">
<path d="M49.6593 60.6309C51.5614 63.3504 52.678 66.6652 52.678 70.2468C52.678 79.477 45.2447 86.9592 36.0701 86.9592C26.8956 86.9592 19.467 79.477 19.467 70.2468C19.467 48.2859 52.678 54.144 52.678 31.5163C52.678 22.2862 45.2447 14.8039 36.0749 14.8039C26.905 14.8039 19.467 22.2862 19.467 31.5163C19.467 35.0931 20.5836 38.4128 22.4857 41.1323" stroke="#ABB8FF" stroke-miterlimit="10" stroke-linecap="round"/>
<path d="M14.322 38.4451L22.8472 41.1093L25.5114 32.584" stroke="#ABB8FF" stroke-linecap="round"/>
<circle cx="36.3091" cy="50.4737" r="11.0789" fill="#020013"/>
<circle cx="36.3091" cy="50.4737" r="11.0789" fill="#ABB8FF" fill-opacity="0.3"/>
<circle cx="36.3091" cy="50.4737" r="11.0789" stroke="#ABB8FF"/>
<rect x="46.8354" y="96.7893" width="4.21053" height="4.21053" rx="2.10526" transform="rotate(90 46.8354 96.7893)" stroke="#ABB8FF"/>
<rect x="34.2038" y="89.4207" width="4.21053" height="4.21053" rx="2.10526" transform="rotate(-90 34.2038 89.4207)" fill="#020013" stroke="#ABB8FF"/>
<path d="M36.3091 89.4207V94.8943C36.3091 96.78 36.3091 97.7228 36.8948 98.3086C37.4806 98.8943 38.4234 98.8943 40.3091 98.8943H42.6248" stroke="#ABB8FF"/>
<path d="M37.4713 45.7737L36.9738 45.8235V45.8235L37.4713 45.7737ZM38.8107 46.3285L38.4941 45.9415V45.9415L38.8107 46.3285ZM39.9132 46.3835L40.2667 46.0299V46.0299L39.9132 46.3835ZM40.3993 46.8696L40.0457 47.2231L40.3993 46.8696ZM40.4543 47.9721L40.8412 48.2888L40.8412 48.2888L40.4543 47.9721ZM41.0091 49.3115L40.9593 49.8091H40.9593L41.0091 49.3115ZM40.4544 52.975L40.8414 52.6584L40.4544 52.975ZM40.3994 54.0773L40.0459 53.7238H40.0459L40.3994 54.0773ZM38.8107 54.6185L38.4941 55.0055L38.8107 54.6185ZM37.4713 55.1734L37.9689 55.2232V55.2232L37.4713 55.1734ZM35.1469 55.1736L34.6494 55.2234V55.2234L35.1469 55.1736ZM33.8076 54.6189L34.1242 55.0058L33.8076 54.6189ZM32.705 54.5639L32.3515 54.9174H32.3515L32.705 54.5639ZM32.2189 54.0778L32.5725 53.7242H32.5725L32.2189 54.0778ZM32.1639 52.9753L32.5509 53.2919L32.5509 53.2919L32.1639 52.9753ZM31.6091 51.636L31.5594 52.1335H31.5594L31.6091 51.636ZM31.6093 49.3115L31.5595 48.814H31.5595L31.6093 49.3115ZM32.1641 47.9719L32.5511 47.6553L32.5511 47.6553L32.1641 47.9719ZM32.2191 46.8692L32.5726 47.2227L32.5726 47.2227L32.2191 46.8692ZM33.8076 46.3282L34.1242 45.9412V45.9412L33.8076 46.3282ZM35.1469 45.7736L34.6494 45.7238V45.7238L35.1469 45.7736ZM37.9688 45.724C37.9012 45.0479 37.3323 44.533 36.6528 44.533V45.533C36.8185 45.533 36.9573 45.6585 36.9738 45.8235L37.9688 45.724ZM38.4941 45.9415C38.2949 46.1045 37.9945 45.9801 37.9688 45.724L36.9738 45.8235C37.0788 46.8734 38.3106 47.3837 39.1273 46.7155L38.4941 45.9415ZM40.2667 46.0299C39.7863 45.5495 39.0199 45.5113 38.4941 45.9415L39.1273 46.7155C39.2556 46.6106 39.4425 46.6199 39.5596 46.7371L40.2667 46.0299ZM40.7528 46.516L40.2667 46.0299L39.5596 46.7371L40.0457 47.2231L40.7528 46.516ZM40.8412 48.2888C41.2715 47.7629 41.2333 46.9965 40.7528 46.516L40.0457 47.2231C40.1629 47.3403 40.1722 47.5273 40.0673 47.6555L40.8412 48.2888ZM41.0588 48.814C40.8027 48.7884 40.6783 48.488 40.8412 48.2888L40.0673 47.6555C39.3991 48.4722 39.9093 49.7041 40.9593 49.8091L41.0588 48.814ZM42.2498 50.13C42.2498 49.4506 41.7349 48.8816 41.0588 48.814L40.9593 49.8091C41.1242 49.8256 41.2498 49.9643 41.2498 50.13H42.2498ZM42.2498 50.8176V50.13H41.2498V50.8176H42.2498ZM41.0589 52.1335C41.7349 52.0659 42.2498 51.497 42.2498 50.8176H41.2498C41.2498 50.9832 41.1243 51.1219 40.9594 51.1384L41.0589 52.1335ZM40.8414 52.6584C40.6786 52.4594 40.8029 52.1591 41.0589 52.1335L40.9594 51.1384C39.9097 51.2434 39.3993 52.4751 40.0674 53.2917L40.8414 52.6584ZM40.753 54.4309C41.2334 53.9505 41.2716 53.1842 40.8414 52.6584L40.0674 53.2917C40.1723 53.4198 40.163 53.6067 40.0459 53.7238L40.753 54.4309ZM40.2668 54.9171L40.753 54.4309L40.0459 53.7238L39.5597 54.21L40.2668 54.9171ZM38.4941 55.0055C39.02 55.4358 39.7863 55.3975 40.2668 54.9171L39.5597 54.21C39.4425 54.3272 39.2556 54.3365 39.1273 54.2316L38.4941 55.0055ZM37.9689 55.2232C37.9945 54.967 38.295 54.8426 38.4941 55.0055L39.1273 54.2316C38.3106 53.5633 37.0788 54.0739 36.9738 55.1237L37.9689 55.2232ZM36.6527 56.4143C37.3323 56.4143 37.9012 55.8993 37.9689 55.2232L36.9738 55.1237C36.9573 55.2887 36.8185 55.4143 36.6527 55.4143V56.4143ZM35.9654 56.4143H36.6527V55.4143H35.9654V56.4143ZM34.6494 55.2234C34.717 55.8994 35.2859 56.4143 35.9654 56.4143V55.4143C35.7997 55.4143 35.6609 55.2887 35.6444 55.1239L34.6494 55.2234ZM34.1242 55.0058C34.3234 54.8429 34.6238 54.9673 34.6494 55.2234L35.6444 55.1239C35.5394 54.0739 34.3076 53.5637 33.4909 54.2319L34.1242 55.0058ZM32.3515 54.9174C32.8319 55.3979 33.5983 55.4361 34.1242 55.0058L33.4909 54.2319C33.3627 54.3368 33.1757 54.3275 33.0586 54.2103L32.3515 54.9174ZM31.8654 54.4313L32.3515 54.9174L33.0586 54.2103L32.5725 53.7242L31.8654 54.4313ZM31.7769 52.6587C31.3467 53.1845 31.3849 53.9509 31.8654 54.4313L32.5725 53.7242C32.4553 53.607 32.446 53.4201 32.5509 53.2919L31.7769 52.6587ZM31.5594 52.1335C31.8155 52.1591 31.9399 52.4595 31.7769 52.6587L32.5509 53.2919C33.2191 52.4753 32.7088 51.2434 31.6589 51.1384L31.5594 52.1335ZM30.3684 50.8175C30.3684 51.497 30.8833 52.0659 31.5594 52.1335L31.6589 51.1384C31.494 51.122 31.3684 50.9832 31.3684 50.8175H30.3684ZM30.3684 50.1301V50.8175H31.3684V50.1301H30.3684ZM31.5595 48.814C30.8834 48.8816 30.3684 49.4506 30.3684 50.1301H31.3684C31.3684 49.9644 31.4941 49.8256 31.659 49.8091L31.5595 48.814ZM31.7771 48.2886C31.9402 48.4879 31.8156 48.7884 31.5595 48.814L31.659 49.8091C32.7091 49.704 33.2192 48.472 32.5511 47.6553L31.7771 48.2886ZM31.8655 46.5156C31.385 46.9961 31.3468 47.7626 31.7771 48.2886L32.5511 47.6553C32.446 47.527 32.4554 47.3399 32.5726 47.2227L31.8655 46.5156ZM32.3515 46.0296L31.8655 46.5156L32.5726 47.2227L33.0586 46.7367L32.3515 46.0296ZM34.1242 45.9412C33.5984 45.511 32.832 45.5491 32.3515 46.0296L33.0586 46.7367C33.1757 46.6196 33.3627 46.6102 33.491 46.7152L34.1242 45.9412ZM34.6494 45.7238C34.6238 45.9797 34.3235 46.1042 34.1242 45.9412L33.491 46.7152C34.3075 47.3832 35.5394 46.8733 35.6444 45.8233L34.6494 45.7238ZM35.9653 44.533C35.2859 44.533 34.717 45.0478 34.6494 45.7238L35.6444 45.8233C35.6609 45.6585 35.7996 45.533 35.9653 45.533V44.533ZM36.6528 44.533H35.9653V45.533H36.6528V44.533ZM37.9854 50.4738C37.9854 51.3996 37.2349 52.1501 36.3091 52.1501V53.1501C37.7872 53.1501 38.9854 51.9519 38.9854 50.4738H37.9854ZM36.3091 48.7975C37.2349 48.7975 37.9854 49.548 37.9854 50.4738H38.9854C38.9854 48.9957 37.7872 47.7975 36.3091 47.7975V48.7975ZM34.6328 50.4738C34.6328 49.548 35.3833 48.7975 36.3091 48.7975V47.7975C34.831 47.7975 33.6328 48.9957 33.6328 50.4738H34.6328ZM36.3091 52.1501C35.3833 52.1501 34.6328 51.3996 34.6328 50.4738H33.6328C33.6328 51.9519 34.831 53.1501 36.3091 53.1501V52.1501Z" fill="#EA4040"/>
<rect x="25.7828" y="5.21069" width="4.21053" height="4.21053" rx="2.10526" transform="rotate(-90 25.7828 5.21069)" stroke="#ABB8FF"/>
<rect x="38.4143" y="12.5789" width="4.21053" height="4.21053" rx="2.10526" transform="rotate(90 38.4143 12.5789)" fill="#020013" stroke="#ABB8FF"/>
<path d="M36.3091 12.5791L36.3091 7.10542C36.3091 5.2198 36.3091 4.27699 35.7233 3.6912C35.1375 3.10542 34.1947 3.10542 32.3091 3.10542L29.9933 3.10542" stroke="#ABB8FF"/>
<path d="M47.5 49C60.3561 50.7833 69.5 55.1494 69.5 60.4999C69.5 67.4035 54.2777 72.9999 35.5 72.9999C16.7223 72.9999 1.5 67.4035 1.5 60.4999C1.5 54.8758 11.6027 50.1193 25.5 48.5493" stroke="#ABB8FF" stroke-dasharray="2 2"/>
</svg>
